public/integrations/sublime.svg

<svg width="37" height="48" viewBox="0 0 37 48" version="1.1" xmlns="http://www.w3.org/2000/svg" xmlns:xlink="http://www.w3.org/1999/xlink">
<title>Group</title>
<desc>Created using Figma</desc>
<g id="Canvas" transform="translate(-16991 746)">
<g id="Group">
<g id="Vector">
<use xlink:href="#path0_fill" transform="translate(16991 -722.625)" fill="url(#paint0_linear)"/>
</g>
<g id="Vector">
<use xlink:href="#path1_fill" transform="translate(16991 -734.362)" fill="#FF9800"/>
</g>
<g id="Vector">
<use xlink:href="#path2_fill" transform="translate(16991 -746)" fill="#FF9800"/>
</g>
</g>
</g>
<defs>
<linearGradient id="paint0_linear" x1="0" y1="0" x2="1" y2="0" gradientUnits="userSpaceOnUse" gradientTransform="matrix(3.1679 -10.5799 8.96612 3.66039 15.9074 15.2947)">
<stop offset="0" stop-color="#FF9700"/>
<stop offset="0.53" stop-color="#F48E00"/>
<stop offset="1" stop-color="#CE6E00"/>
</linearGradient>
<path id="path0_fill" fill-rule="evenodd" d="M 36.9949 0.767091C 36.9949 0.204549 36.5786 -0.119835 36.0678 0.0413314L 0.927056 11.171C 0.415222 11.3332 0 11.9214 0 12.4829L 0 23.858C 0 24.4205 0.415222 24.7459 0.927056 24.5837L 36.0678 13.4551C 36.5786 13.2929 36.9949 12.7047 36.9949 12.1421L 36.9949 0.767091L 36.9949 0.767091Z"/>
<path id="path1_fill" fill-rule="evenodd" d="M 0 12.1415C 0 12.7041 0.415222 13.2923 0.927056 13.4545L 36.0729 24.5852C 36.5848 24.7474 37 24.422 37 23.8605L 37 12.4844C 37 11.9229 36.5848 11.3347 36.0729 11.1725L 0.927056 0.0417789C 0.415222 -0.120414 1.02696e-15 0.203971 1.02696e-15 0.766512L 1.02696e-15 12.1415L 0 12.1415Z"/>
<path id="path2_fill" fill-rule="evenodd" d="M 36.9949 0.767456C 36.9949 0.204915 36.5786 -0.120497 36.0678 0.0416959L 0.927056 11.1704C 0.415222 11.3326 0 11.9208 0 12.4833L 0 23.8583C 0 24.4209 0.415222 24.7453 0.927056 24.5841L 36.0678 13.4544C 36.5786 13.2922 36.9949 12.704 36.9949 12.1425L 36.9949 0.767456L 36.9949 0.767456Z"/>
</defs>
</svg>

<svg width="37" height="48" xmlns="http://www.w3.org/2000/svg" xmlns:xlink="http://www.w3.org/1999/xlink"><use xlink:href="#a" transform="translate(0 23.375)" fill="url(#b)"/><use xlink:href="#c" transform="translate(0 11.638)" fill="#FF9800"/><use xlink:href="#d" fill="#FF9800"/><defs><path id="a" fill-rule="evenodd" d="M36.995.767c0-.562-.416-.887-.927-.726L.928 11.171c-.513.162-.928.75-.928 1.312v11.375c0 .563.415.888.927.726l35.14-11.129c.512-.162.928-.75.928-1.313V.767Z"/><path id="c" fill-rule="evenodd" d="M0 12.142c0 .562.415 1.15.927 1.313l35.146 11.13c.512.162.927-.163.927-.725V12.484c0-.561-.415-1.15-.927-1.312L.927.042C.415-.12 0 .204 0 .767V12.14Z"/><path id="d" fill-rule="evenodd" d="M36.995.767c0-.562-.416-.887-.927-.725L.928 11.17c-.513.163-.928.75-.928 1.313v11.375c0 .563.415.887.927.726l35.14-11.13c.512-.162.928-.75.928-1.312V.768Z"/><linearGradient id="b" x1="0" y1="0" x2="1" y2="0" gradientUnits="userSpaceOnUse" gradientTransform="matrix(3.1679 -10.5799 8.96612 3.66039 15.907 15.295)"><stop offset="0" stop-color="#FF9700"/><stop offset=".53" stop-color="#F48E00"/><stop offset="1" stop-color="#CE6E00"/></linearGradient></defs></svg>
